icons/sun.svg

<svg id="Capa_1" enable-background="new 0 0 512 512" height="512" viewBox="0 0 512 512" width="512" xmlns="http://www.w3.org/2000/svg"><g><path d="m121 256c0 74.439 60.561 135 135 135s135-60.561 135-135-60.561-135-135-135-135 60.561-135 135zm135-105c57.897 0 105 47.103 105 105s-47.103 105-105 105-105-47.103-105-105 47.103-105 105-105z"/><path d="m372.673 372.673c-5.858 5.858-5.858 15.355 0 21.213l72.426 72.426c5.857 5.858 15.355 5.859 21.213 0 5.858-5.858 5.858-15.355 0-21.213l-72.426-72.426c-5.858-5.859-15.356-5.859-21.213 0z"/><path d="m66.901 45.688c-5.857-5.858-15.355-5.858-21.213 0s-5.858 15.355 0 21.213l72.426 72.426c5.857 5.858 15.355 5.859 21.213 0 5.858-5.858 5.858-15.355 0-21.213z"/><path d="m45.688 466.312c5.857 5.858 15.355 5.859 21.213 0l72.426-72.426c5.858-5.858 5.858-15.355 0-21.213-5.857-5.858-15.355-5.858-21.213 0l-72.426 72.426c-5.858 5.858-5.858 15.355 0 21.213z"/><path d="m466.312 45.688c-5.857-5.858-15.355-5.858-21.213 0l-72.426 72.426c-5.858 5.858-5.858 15.355 0 21.213 5.857 5.858 15.355 5.859 21.213 0l72.426-72.426c5.858-5.858 5.858-15.355 0-21.213z"/><path d="m319.143 408.44c-7.654 3.17-11.288 11.945-8.118 19.599l11.48 27.716c3.166 7.642 11.934 11.293 19.599 8.118 7.654-3.17 11.288-11.945 8.118-19.599l-11.48-27.716c-3.171-7.654-11.945-11.287-19.599-8.118z"/><path d="m192.857 103.56c7.654-3.17 11.288-11.945 8.118-19.599l-11.48-27.716c-3.171-7.654-11.945-11.287-19.599-8.118-7.654 3.17-11.288 11.945-8.118 19.599l11.48 27.716c3.167 7.642 11.934 11.293 19.599 8.118z"/><path d="m83.961 311.024-27.716 11.48c-7.654 3.17-11.288 11.945-8.118 19.599 3.166 7.642 11.934 11.293 19.599 8.118l27.716-11.48c7.654-3.17 11.288-11.945 8.118-19.599-3.17-7.653-11.944-11.286-19.599-8.118z"/><path d="m428.039 200.976 27.716-11.48c7.654-3.17 11.288-11.945 8.118-19.599s-11.944-11.287-19.599-8.118l-27.716 11.48c-7.654 3.17-11.288 11.945-8.118 19.599 3.166 7.642 11.934 11.292 19.599 8.118z"/><path d="m173.259 416.558-11.48 27.716c-3.17 7.654.464 16.428 8.118 19.599 7.685 3.182 16.441-.495 19.599-8.118l11.48-27.716c3.17-7.654-.464-16.428-8.118-19.599-7.655-3.169-16.429.464-19.599 8.118z"/><path d="m338.741 95.442 11.48-27.716c3.17-7.654-.464-16.428-8.118-19.599-7.654-3.169-16.428.464-19.599 8.118l-11.48 27.716c-3.17 7.654.464 16.428 8.118 19.599 7.685 3.182 16.442-.495 19.599-8.118z"/><path d="m95.442 173.259-27.716-11.48c-7.654-3.17-16.428.464-19.599 8.118-3.17 7.654.464 16.428 8.118 19.599l27.716 11.48c7.685 3.182 16.441-.495 19.599-8.118 3.17-7.654-.464-16.429-8.118-19.599z"/><path d="m455.755 322.505-27.716-11.48c-7.654-3.169-16.428.464-19.599 8.118-3.17 7.654.464 16.428 8.118 19.599l27.716 11.48c7.685 3.182 16.441-.495 19.599-8.118 3.17-7.654-.464-16.429-8.118-19.599z"/><path d="m241 436v61c0 8.284 6.716 15 15 15s15-6.716 15-15v-61c0-8.284-6.716-15-15-15s-15 6.716-15 15z"/><path d="m271 76v-61c0-8.284-6.716-15-15-15s-15 6.716-15 15v61c0 8.284 6.716 15 15 15s15-6.716 15-15z"/><path d="m0 256c0 8.284 6.716 15 15 15h61c8.284 0 15-6.716 15-15s-6.716-15-15-15h-61c-8.284 0-15 6.716-15 15z"/><path d="m497 241h-61c-8.284 0-15 6.716-15 15s6.716 15 15 15h61c8.284 0 15-6.716 15-15s-6.716-15-15-15z"/></g></svg>

<?xml version="1.0" encoding="UTF-8" standalone="no"?><!-- Generator: Gravit.io --><svg xmlns="http://www.w3.org/2000/svg" xmlns:xlink="http://www.w3.org/1999/xlink" style="isolation:isolate" viewBox="0 0 512 512" width="512pt" height="512pt"><defs><clipPath id="_clipPath_YhXZ7PWRmHavGs8Uu0doaqkwl5unKQOu"><rect width="512" height="512"/></clipPath></defs><g clip-path="url(#_clipPath_YhXZ7PWRmHavGs8Uu0doaqkwl5unKQOu)"><g><path d=" M 121 256 C 121 330.439 181.561 391 256 391 C 330.439 391 391 330.439 391 256 C 391 181.561 330.439 121 256 121 C 181.561 121 121 181.561 121 256 Z  M 256 151 C 313.897 151 361 198.103 361 256 C 361 313.897 313.897 361 256 361 C 198.103 361 151 313.897 151 256 C 151 198.103 198.103 151 256 151 Z " fill="rgb(106,0,158)"/><path d=" M 372.673 372.673 C 366.815 378.531 366.815 388.028 372.673 393.886 L 445.099 466.312 C 450.956 472.17 460.454 472.171 466.312 466.312 C 472.17 460.454 472.17 450.957 466.312 445.099 L 393.886 372.673 C 388.028 366.814 378.53 366.814 372.673 372.673 Z " fill="rgb(106,0,158)"/><path d=" M 66.901 45.688 C 61.044 39.83 51.546 39.83 45.688 45.688 C 39.83 51.546 39.83 61.043 45.688 66.901 L 118.114 139.327 C 123.971 145.185 133.469 145.186 139.327 139.327 C 145.185 133.469 145.185 123.972 139.327 118.114 L 66.901 45.688 Z " fill="rgb(106,0,158)"/><path d=" M 45.688 466.312 C 51.545 472.17 61.043 472.171 66.901 466.312 L 139.327 393.886 C 145.185 388.028 145.185 378.531 139.327 372.673 C 133.47 366.815 123.972 366.815 118.114 372.673 L 45.688 445.099 C 39.83 450.957 39.83 460.454 45.688 466.312 Z " fill="rgb(106,0,158)"/><path d=" M 466.312 45.688 C 460.455 39.83 450.957 39.83 445.099 45.688 L 372.673 118.114 C 366.815 123.972 366.815 133.469 372.673 139.327 C 378.53 145.185 388.028 145.186 393.886 139.327 L 466.312 66.901 C 472.17 61.043 472.17 51.546 466.312 45.688 Z " fill="rgb(106,0,158)"/><path d=" M 319.143 408.44 C 311.489 411.61 307.855 420.385 311.025 428.039 L 322.505 455.755 C 325.671 463.397 334.439 467.048 342.104 463.873 C 349.758 460.703 353.392 451.928 350.222 444.274 L 338.742 416.558 C 335.571 408.904 326.797 405.271 319.143 408.44 Z " fill="rgb(106,0,158)"/><path d=" M 192.857 103.56 C 200.511 100.39 204.145 91.615 200.975 83.961 L 189.495 56.245 C 186.324 48.591 177.55 44.958 169.896 48.127 C 162.242 51.297 158.608 60.072 161.778 67.726 L 173.258 95.442 C 176.425 103.084 185.192 106.735 192.857 103.56 Z " fill="rgb(106,0,158)"/><path d=" M 83.961 311.024 L 56.245 322.504 C 48.591 325.674 44.957 334.449 48.127 342.103 C 51.293 349.745 60.061 353.396 67.726 350.221 L 95.442 338.741 C 103.096 335.571 106.73 326.796 103.56 319.142 C 100.39 311.489 91.616 307.856 83.961 311.024 Z " fill="rgb(106,0,158)"/><path d=" M 428.039 200.976 L 455.755 189.496 C 463.409 186.326 467.043 177.551 463.873 169.897 C 460.703 162.243 451.929 158.61 444.274 161.779 L 416.558 173.259 C 408.904 176.429 405.27 185.204 408.44 192.858 C 411.606 200.5 420.374 204.15 428.039 200.976 Z " fill="rgb(106,0,158)"/><path d=" M 173.259 416.558 L 161.779 444.274 C 158.609 451.928 162.243 460.702 169.897 463.873 C 177.582 467.055 186.338 463.378 189.496 455.755 L 200.976 428.039 C 204.146 420.385 200.512 411.611 192.858 408.44 C 185.203 405.271 176.429 408.904 173.259 416.558 Z " fill="rgb(106,0,158)"/><path d=" M 338.741 95.442 L 350.221 67.726 C 353.391 60.072 349.757 51.298 342.103 48.127 C 334.449 44.958 325.675 48.591 322.504 56.245 L 311.024 83.961 C 307.854 91.615 311.488 100.389 319.142 103.56 C 326.827 106.742 335.584 103.065 338.741 95.442 L 338.741 95.442 Z " fill="rgb(106,0,158)"/><path d=" M 95.442 173.259 L 67.726 161.779 C 60.072 158.609 51.298 162.243 48.127 169.897 C 44.957 177.551 48.591 186.325 56.245 189.496 L 83.961 200.976 C 91.646 204.158 100.402 200.481 103.56 192.858 C 106.73 185.204 103.096 176.429 95.442 173.259 L 95.442 173.259 Z " fill="rgb(106,0,158)"/><path d=" M 455.755 322.505 L 428.039 311.025 C 420.385 307.856 411.611 311.489 408.44 319.143 C 405.27 326.797 408.904 335.571 416.558 338.742 L 444.274 350.222 C 451.959 353.404 460.715 349.727 463.873 342.104 C 467.043 334.45 463.409 325.675 455.755 322.505 Z " fill="rgb(106,0,158)"/><path d=" M 241 436 L 241 497 C 241 505.284 247.716 512 256 512 C 264.284 512 271 505.284 271 497 L 271 436 C 271 427.716 264.284 421 256 421 C 247.716 421 241 427.716 241 436 Z " fill="rgb(106,0,158)"/><path d=" M 271 76 L 271 15 C 271 6.716 264.284 0 256 0 C 247.716 0 241 6.716 241 15 L 241 76 C 241 84.284 247.716 91 256 91 C 264.284 91 271 84.284 271 76 Z " fill="rgb(106,0,158)"/><path d=" M 0 256 C 0 264.284 6.716 271 15 271 L 76 271 C 84.284 271 91 264.284 91 256 C 91 247.716 84.284 241 76 241 L 15 241 C 6.716 241 0 247.716 0 256 Z " fill="rgb(106,0,158)"/><path d=" M 497 241 L 436 241 C 427.716 241 421 247.716 421 256 C 421 264.284 427.716 271 436 271 L 497 271 C 505.284 271 512 264.284 512 256 C 512 247.716 505.284 241 497 241 Z " fill="rgb(106,0,158)"/></g></g></svg>
